lib/brands/icons/nuance.svg

<svg xmlns="http://www.w3.org/2000/svg" fill="none" aria-hidden="true" viewBox="0 0 48 48"><g id="nuance-Icon"><path id="Vector" fill="#4E6994" fill-rule="evenodd" d="M32.5291 29.735C29.7354 29.588 27.2349 28.7055 24.8823 27.3824C22.3822 26.0588 21.2061 25.1763 21.0587 25.0298V25.6178C20.9116 25.7648 21.6472 26.6473 22.9707 28.2649C24.2942 29.8825 26.3529 31.5005 29.0004 33.1176C31.647 34.7356 34.8822 35.6177 38.8528 35.7647H42.529C43.4115 35.6177 43.853 35.1767 44 34.4412V24.7353C43.853 23.8528 43.4115 23.4117 42.529 23.2647H32.5296V29.735H32.5291ZM27.0875 22.9707V22.5292L24.8818 19.8821C23.5583 18.2646 21.6467 16.5 18.9996 14.8824C16.205 13.2648 12.9699 12.3823 9.14673 12.2353H5.47056C4.58804 12.3823 4.14701 12.8238 4 13.5593V23.2647C4.14701 24.1472 4.58804 24.5883 5.47056 24.7353H15.4704V18.2646C18.2646 18.4116 20.7646 19.2941 23.1173 20.6176L27.0875 22.9707Z" clip-rule="evenodd"/></g></svg>

<svg xmlns="http://www.w3.org/2000/svg" fill="none" aria-hidden="true" viewBox="0 0 48 48"><path fill="#4E6994" fill-rule="evenodd" d="M32.53 29.735c-2.795-.147-5.295-1.03-7.648-2.353-2.5-1.323-3.676-2.206-3.823-2.352v.588c-.147.147.588 1.03 1.912 2.647 1.323 1.617 3.382 3.235 6.03 4.853 2.646 1.618 5.881 2.5 9.852 2.647h3.676c.882-.147 1.324-.588 1.471-1.324v-9.706c-.147-.882-.589-1.323-1.471-1.47h-10v6.47Zm-5.443-6.764v-.442l-2.205-2.647c-1.324-1.617-3.235-3.382-5.882-5-2.795-1.617-6.03-2.5-9.853-2.647H5.47c-.883.147-1.324.589-1.471 1.324v9.706c.147.882.588 1.323 1.47 1.47h10v-6.47c2.795.146 5.295 1.03 7.647 2.353l3.97 2.353Z" clip-rule="evenodd"/></svg>
